static/images/jetpack/illustration-jetpack-protect.svg

<svg height="48" viewBox="0 0 48 48" width="48" xmlns="http://www.w3.org/2000/svg" xmlns:xlink="http://www.w3.org/1999/xlink"><mask id="a" fill="#fff"><path d="m.11939155 23.994862c0-13.2109521 10.70954365-23.92036059 23.92049575-23.92036059 13.2108169 0 23.9203606 10.70940849 23.9203606 23.92036059 0 13.2108169-10.7095437 23.9203605-23.9203606 23.9203605-13.2109521 0-23.92049575-10.7095436-23.92049575-23.9203605" fill="#fff" fill-rule="evenodd"/></mask><g fill="none" fill-rule="evenodd"><path d="m.11939155 23.994862c0-13.2109521 10.70954365-23.92036059 23.92049575-23.92036059 13.2108169 0 23.9203606 10.70940849 23.9203606 23.92036059 0 13.2108169-10.7095437 23.9203605-23.9203606 23.9203605-13.2109521 0-23.92049575-10.7095436-23.92049575-23.9203605" fill="#ebf0f1"/><path d="m24.3634479 5.83409577 3.4743887 1.27112113-3.4743887 1.06181409z" fill="#23a1ca"/><path d="m23.7163268 5.83409577h.6471211v11.92522813h-.6471211z" fill="#212b35"/><path d="m24.0398873 8.73329577-6.3330253 9.68261413h12.6659155z" fill="#212b35"/><g fill="#4f6d80"><path d="m17.706862 17.6059944h12.6659155v17.6027493h-12.6659155z"/><path d="m19.8686197 20.5876732v-5.4721352h-3.587831v1.8843043c0 1.9815211 1.6063099 3.5878309 3.587831 3.5878309"/><path d="m28.1787042 20.5876732v-5.4721352h3.587831v1.8843043c0 1.9815211-1.6063098 3.5878309-3.587831 3.5878309"/><path d="m22.2298141 15.115538h3.587831v5.4721352h-3.587831z"/></g><path d="m22.2298141 22.8344789c0-.9996169.8103211-1.8100733 1.8100732-1.8100733.9996169 0 1.8100733.8104564 1.8100733 1.8100733 0 .9997521-.8104564 1.8102084-1.8100733 1.8102084-.9997521 0-1.8100732-.8104563-1.8100732-1.8102084" fill="#222d32"/><path d="m13.3503549 22.8344789h2.368631v6.1249352h-2.368631z" fill="#64869a"/><path d="m11.3797859 26.7958986c-1.308169 0-2.36863097-1.0605972-2.36863097-2.3687662v-1.5926535h2.36863097z" fill="#64869a"/><path d="m10.1954704 25.1617352h7.5113916v10.0470085h-7.5113916z" fill="#64869a"/><path d="m13.9512338 27.9925183c-.6541521 0-1.1844507.5301634-1.1844507 1.1843155v3.201262h2.3687662v-3.201262c0-.6541521-.5302986-1.1843155-1.1843155-1.1843155" fill="#222d32"/><path d="m32.3606535 22.8344789h2.368631v6.1249352h-2.368631z" fill="#64869a"/><path d="m36.6998535 26.7958986c1.308169 0 2.368631-1.0605972 2.368631-2.3687662v-1.5926535h-2.368631z" fill="#64869a"/><path d="m30.3727775 25.1617352h7.5113915v10.0470085h-7.5113915z" fill="#64869a"/><path d="m34.1285408 27.9925183c.6540169 0 1.1843155.5301634 1.1843155 1.1843155v3.201262h-2.3686309v-3.201262c0-.6541521.5301633-1.1843155 1.1843154-1.1843155" fill="#222d32"/><path d="m24.0398873 27.7352113c-1.5473577 0-2.8015774 1.2542197-2.8015774 2.8015774v4.671955h5.6031549v-4.671955c0-1.5473577-1.2543549-2.8015774-2.8015775-2.8015774" fill="#222d32"/><path d="m23.5375775 5.33178592c0-.27745353.2248563-.50230986.5023098-.50230986.2773183 0 .5023099.22485633.5023099.50230986 0 .27745352-.2249916.50230985-.5023099.50230985-.2774535 0-.5023098-.22485633-.5023098-.50230985" fill="#212b35"/><path d="m71.3105577 54.4113127c-11.7539154-12.7259493-28.5812281-20.6961127-47.2706704-20.6961127-18.68944223 0-35.5168901 7.9701634-47.2706704 20.6961127z" fill="#61b87c" mask="url(#a)"/></g></svg>

<?xml version="1.0" encoding="UTF-8" standalone="no"?>
<svg width="48px" height="48px" viewBox="0 0 48 48" version="1.1" xmlns="http://www.w3.org/2000/svg" xmlns:xlink="http://www.w3.org/1999/xlink">
    <defs>
        <path id="path-1" d="M0.119391549,23.994862 C0.119391549,10.7839099 10.8289352,0.0745014085 24.0398873,0.0745014085 C37.2507042,0.0745014085 47.9602479,10.7839099 47.9602479,23.994862 C47.9602479,37.2056789 37.2507042,47.9152225 24.0398873,47.9152225 C10.8289352,47.9152225 0.119391549,37.2056789 0.119391549,23.994862"></path>
    </defs>
    <g id="Page-1" stroke="none" stroke-width="1" fill="none" fill-rule="evenodd">
        <g id="Imported-Layers-Copy-4">
            <path d="M0.119391549,23.994862 C0.119391549,10.7839099 10.8289352,0.0745014085 24.0398873,0.0745014085 C37.2507042,0.0745014085 47.9602479,10.7839099 47.9602479,23.994862 C47.9602479,37.2056789 37.2507042,47.9152225 24.0398873,47.9152225 C10.8289352,47.9152225 0.119391549,37.2056789 0.119391549,23.994862" id="Fill-1" fill="#EBF0F1"></path>
            <path d="M24.3634479,5.83409577 L27.8378366,7.1052169 L24.3634479,8.16703099 L24.3634479,5.83409577" id="Fill-2" fill="#23A1CA"></path>
            <path d="M23.7163268,5.83409577 L24.3634479,5.83409577 L24.3634479,17.7593239 L23.7163268,17.7593239 L23.7163268,5.83409577 Z" id="Fill-3" fill="#212B35"></path>
            <path d="M24.0398873,8.73329577 L17.706862,18.4159099 L30.3727775,18.4159099 L24.0398873,8.73329577" id="Fill-4" fill="#212B35"></path>
            <path d="M17.706862,17.6059944 L30.3727775,17.6059944 L30.3727775,35.2087437 L17.706862,35.2087437 L17.706862,17.6059944 Z" id="Fill-5" fill="#4F6D80"></path>
            <path d="M19.8686197,20.5876732 L19.8686197,15.115538 L16.2807887,15.115538 L16.2807887,16.9998423 C16.2807887,18.9813634 17.8870986,20.5876732 19.8686197,20.5876732" id="Fill-6" fill="#4F6D80"></path>
            <path d="M28.1787042,20.5876732 L28.1787042,15.115538 L31.7665352,15.115538 L31.7665352,16.9998423 C31.7665352,18.9813634 30.1602254,20.5876732 28.1787042,20.5876732" id="Fill-7" fill="#4F6D80"></path>
            <path d="M22.2298141,15.115538 L25.8176451,15.115538 L25.8176451,20.5876732 L22.2298141,20.5876732 L22.2298141,15.115538 Z" id="Fill-8" fill="#4F6D80"></path>
            <path d="M22.2298141,22.8344789 C22.2298141,21.834862 23.0401352,21.0244056 24.0398873,21.0244056 C25.0395042,21.0244056 25.8499606,21.834862 25.8499606,22.8344789 C25.8499606,23.834231 25.0395042,24.6446873 24.0398873,24.6446873 C23.0401352,24.6446873 22.2298141,23.834231 22.2298141,22.8344789" id="Fill-9" fill="#222D32"></path>
            <path d="M13.3503549,22.8344789 L15.7189859,22.8344789 L15.7189859,28.9594141 L13.3503549,28.9594141 L13.3503549,22.8344789 Z" id="Fill-10" fill="#64869A"></path>
            <path d="M11.3797859,26.7958986 L11.3797859,26.7958986 C10.0716169,26.7958986 9.01115493,25.7353014 9.01115493,24.4271324 L9.01115493,22.8344789 L11.3797859,22.8344789 L11.3797859,26.7958986" id="Fill-11" fill="#64869A"></path>
            <path d="M10.1954704,25.1617352 L17.706862,25.1617352 L17.706862,35.2087437 L10.1954704,35.2087437 L10.1954704,25.1617352 Z" id="Fill-12" fill="#64869A"></path>
            <path d="M13.9512338,27.9925183 L13.9512338,27.9925183 C13.2970817,27.9925183 12.7667831,28.5226817 12.7667831,29.1768338 L12.7667831,32.3780958 L15.1355493,32.3780958 L15.1355493,29.1768338 C15.1355493,28.5226817 14.6052507,27.9925183 13.9512338,27.9925183" id="Fill-13" fill="#222D32"></path>
            <path d="M32.3606535,22.8344789 L34.7292845,22.8344789 L34.7292845,28.9594141 L32.3606535,28.9594141 L32.3606535,22.8344789 Z" id="Fill-14" fill="#64869A"></path>
            <path d="M36.6998535,26.7958986 L36.6998535,26.7958986 C38.0080225,26.7958986 39.0684845,25.7353014 39.0684845,24.4271324 L39.0684845,22.8344789 L36.6998535,22.8344789 L36.6998535,26.7958986" id="Fill-15" fill="#64869A"></path>
            <path d="M30.3727775,25.1617352 L37.884169,25.1617352 L37.884169,35.2087437 L30.3727775,35.2087437 L30.3727775,25.1617352 Z" id="Fill-16" fill="#64869A"></path>
            <path d="M34.1285408,27.9925183 L34.1285408,27.9925183 C34.7825577,27.9925183 35.3128563,28.5226817 35.3128563,29.1768338 L35.3128563,32.3780958 L32.9442254,32.3780958 L32.9442254,29.1768338 C32.9442254,28.5226817 33.4743887,27.9925183 34.1285408,27.9925183" id="Fill-17" fill="#222D32"></path>
            <path d="M24.0398873,27.7352113 L24.0398873,27.7352113 C22.4925296,27.7352113 21.2383099,28.989431 21.2383099,30.5367887 L21.2383099,35.2087437 L26.8414648,35.2087437 L26.8414648,30.5367887 C26.8414648,28.989431 25.5871099,27.7352113 24.0398873,27.7352113" id="Fill-18" fill="#222D32"></path>
            <path d="M23.5375775,5.33178592 C23.5375775,5.05433239 23.7624338,4.82947606 24.0398873,4.82947606 C24.3172056,4.82947606 24.5421972,5.05433239 24.5421972,5.33178592 C24.5421972,5.60923944 24.3172056,5.83409577 24.0398873,5.83409577 C23.7624338,5.83409577 23.5375775,5.60923944 23.5375775,5.33178592" id="Fill-19" fill="#212B35"></path>
            <g id="Group-22">
                <mask id="mask-2" fill="white">
                    <use xlink:href="#path-1"></use>
                </mask>
                <g id="Clip-21"></g>
                <path d="M71.3105577,54.4113127 C59.5566423,41.6853634 42.7293296,33.7152 24.0398873,33.7152 C5.35044507,33.7152 -11.4770028,41.6853634 -23.2307831,54.4113127 L71.3105577,54.4113127" id="Fill-20" fill="#61B87C" mask="url(#mask-2)"></path>
            </g>
        </g>
    </g>
</svg>
